X: 21053
T: The RANTING HIGHLANDMAN
O: Singing set.
%R: air, march
B: W. Hamilton "Universal Tune-Book" Vol. 2 Glasgow 1846 p.105 #3
S: http://s3-eu-west-1.amazonaws.com/itma.dl.printmaterial/book_pdfs/hamiltonvol2web.pdf
Z: 2016 John Chambers <jc:trillian.mit.edu>
M: 2/4
L: 1/8
K: F
% - - - - - - - - - - - - - - - - - - - - - - - - -
A |\
FFcB | A>BcA | B>AGF | EGGA |\
FFcB | A>BcA | BGc>B | AFF |]
(d/e/) |\
fcdB | A>Bc_A | G>F_EG | _eG Gd/=e/ |\
fcdB | A>BcA | BGfe | fFF |]
% - - - - - - - - - - - - - - - - - - - - - - - - -

%%sep 1 1 500
%%sep 1 1 500

